src/assets/card-logo.svg

<svg width="27" height="21" viewBox="0 0 27 21" fill="none" xmlns="http://www.w3.org/2000/svg">
<path fill-rule="evenodd" clip-rule="evenodd" d="M0 4.92188C0 3.654 1.323 2.625 2.95312 2.625H24.0469C25.677 2.625 27 3.654 27 4.92188V16.0781C27 16.6873 26.6889 17.2715 26.135 17.7023C25.5812 18.133 24.8301 18.375 24.0469 18.375H2.95312C2.16991 18.375 1.41877 18.133 0.86495 17.7023C0.311132 17.2715 0 16.6873 0 16.0781L0 4.92188ZM2.95312 4.59375C2.84124 4.59375 2.73393 4.62832 2.65481 4.68986C2.5757 4.75139 2.53125 4.83485 2.53125 4.92188V16.0781C2.53125 16.2592 2.72025 16.4062 2.95312 16.4062H24.0469C24.1588 16.4062 24.2661 16.3717 24.3452 16.3101C24.4243 16.2486 24.4688 16.1651 24.4688 16.0781V4.92188C24.4688 4.83485 24.4243 4.75139 24.3452 4.68986C24.2661 4.62832 24.1588 4.59375 24.0469 4.59375H2.95312ZM5.90625 8.20312C5.90625 7.94205 6.03959 7.69167 6.27694 7.50707C6.51429 7.32246 6.83621 7.21875 7.17188 7.21875H18.9844C19.32 7.21875 19.642 7.32246 19.8793 7.50707C20.1167 7.69167 20.25 7.94205 20.25 8.20312C20.25 8.4642 20.1167 8.71458 19.8793 8.89918C19.642 9.08379 19.32 9.1875 18.9844 9.1875H7.17188C6.83621 9.1875 6.51429 9.08379 6.27694 8.89918C6.03959 8.71458 5.90625 8.4642 5.90625 8.20312ZM7.17188 11.1562C6.83621 11.1562 6.51429 11.26 6.27694 11.4446C6.03959 11.6292 5.90625 11.8796 5.90625 12.1406C5.90625 12.4017 6.03959 12.6521 6.27694 12.8367C6.51429 13.0213 6.83621 13.125 7.17188 13.125H13.9219C14.2575 13.125 14.5795 13.0213 14.8168 12.8367C15.0542 12.6521 15.1875 12.4017 15.1875 12.1406C15.1875 11.8796 15.0542 11.6292 14.8168 11.4446C14.5795 11.26 14.2575 11.1562 13.9219 11.1562H7.17188Z" fill="#36458F"/>
</svg>

<svg fill="none" xmlns="http://www.w3.org/2000/svg" viewBox="0 0 27 21">
  <path fill-rule="evenodd" clip-rule="evenodd" d="M0 4.922c0-1.268 1.323-2.297 2.953-2.297h21.094c1.63 0 2.953 1.029 2.953 2.297v11.156c0 .61-.311 1.194-.865 1.624-.554.431-1.305.673-2.088.673H2.953c-.783 0-1.534-.242-2.088-.673C.31 17.272 0 16.687 0 16.078V4.922zm2.953-.328a.49.49 0 00-.298.096.296.296 0 00-.124.232v11.156c0 .181.19.328.422.328h21.094a.49.49 0 00.298-.096.296.296 0 00.124-.232V4.922a.297.297 0 00-.124-.232.49.49 0 00-.298-.096H2.953zm2.953 3.61c0-.262.134-.512.37-.697.238-.185.56-.288.896-.288h11.812c.336 0 .658.103.895.288.238.185.371.435.371.696 0 .261-.133.512-.37.696-.238.185-.56.289-.896.289H7.172c-.336 0-.658-.104-.895-.289-.237-.184-.37-.435-.37-.696zm1.266 2.952c-.336 0-.658.104-.895.289-.237.184-.37.435-.37.696 0 .26.133.511.37.696.237.184.56.288.895.288h6.75c.335 0 .657-.104.895-.288.237-.185.37-.435.37-.696 0-.261-.133-.512-.37-.696a1.469 1.469 0 00-.895-.289h-6.75z" fill="#36458F"/>
</svg>
